X: 8707
T: Crowley's
R: reel
M: 4/4
K: Adorian
A2 d2 B2 dB|AD (3FED AD (3FED|AFAd Bd B2|Aceg fddB|
A2 Ad B2 dB|AD (3FED AD (3FED|AFAd B2 dB|Aceg fdde||
fdfa g2 fg|eA (3cBA eA (3cBA|fdfa g2 fg|afge fdde|
fdfa g2 fg|eA (3cBA eA (3cBA|fdfa g2 fg|afge fd d2||

